_icons/SVG/604-eelektross.svg

<svg xmlns="http://www.w3.org/2000/svg" viewBox="0 0 32 32"><title>604-eelektross</title><path d="M12.83369,19.15948c-2.11019-2.90953-3.58684-5.5057-1.25677-7.62587,6.05535-4.532-7.21692-6.81708-2.43738,0C9.152,15.66,10.468,17.87176,12.13414,19.56926,12.7849,19.69476,12.87629,19.46921,12.83369,19.15948Z" style="fill:#365c84"/><path d="M14.4397,21.42627c-.155-.05225-.31421-.11279-.47919-.18433a1.88719,1.88719,0,0,1-.48865,1.48243C11.186,25.33862,14.698,27.08838,16,24.92261V22.02637Z" style="fill:#f7d684"/><path d="M17.05176,22.43091,16,22.02637v2.89624a3.10272,3.10272,0,0,0,.38867-1.08606A2.33481,2.33481,0,0,1,17.05176,22.43091Z" style="fill:#f0c877"/><path d="M12.862,14.37085A8.33179,8.33179,0,0,0,9.46338,13.991C11.59674,9.92627,13.78363,8.25549,16,7.89709V7.23743c-2.66772-.0116-5.74725.83313-8.7572,6.73767-2.49756.42309-4.08106.97729-4.46723,1.70215l2.512,7.66894a7.43932,7.43932,0,0,0,3.97339-3.198,1.28458,1.28458,0,0,1,.64709-.47558l-.001-.00415c2.887-2.53638,3.9712.30078,6.0929,1.75854V17.01013A6.95129,6.95129,0,0,0,12.862,14.37085Z" style="fill:#396186"/><path d="M19.78711,8.35571a7.82958,7.82958,0,0,0,4.82776.67285c2.58337,2.25831,2.73492-2.635.15832-.67285-3.03674.65479-5.23968-1.06836-7.55829-1.06836-.39349-.02746-.79962-.04809-1.2149-.04992v.65966A7.64478,7.64478,0,0,1,19.78711,8.35571Z" style="fill:#365c84"/><path d="M19.86212,21.90625l.55817-.2146c4.68286-5.3418,8.59979-7.23926,11.63415-5.16943-.22906-.55152-.37426-1.13379-1.7016-1.281-3.9212-.94433-7.07324.78931-10.78723,3.41773-1.52368,1.219-1.96295.57788-2.42981.0017A14.61142,14.61142,0,0,1,16,17.01013V21.427A4.03507,4.03507,0,0,0,19.86212,21.90625Z" style="fill:#365c84"/><path d="M9.9071,19.66846l.001.00415a2.09283,2.09283,0,0,1,2.24164.47558A6.77326,6.77326,0,0,0,16,22.99353V21.427C13.8783,19.96924,12.79407,17.13208,9.9071,19.66846Z" style="fill:#fae09f"/><path d="M19.86212,21.90625A4.03507,4.03507,0,0,1,16,21.427v1.56653a4.19714,4.19714,0,0,0,.81921.08313Z" style="fill:#f7d684"/><path d="M20.42029,21.69165c-.19214.08325-.37769.15381-.55817.2146l-3.04291,1.17041a2.7193,2.7193,0,0,1,.77246,1.63745c.74433,4.32593,6.41822,2.15869,3.39789-1.29565A2.19833,2.19833,0,0,1,20.42029,21.69165Z" style="fill:#f0c877"/><path d="M28.21594,13.9751c-.14673-1.364-1.13849-1.34888-3.16577.356-.70044-1.999-1.99884-.85742-3.52191,1.46436-.71991-1.167-1.59241-1.28955-2.80957.948-.34351.939-.74408,1.91723-1.58289,1.91723.46686.57618.90613,1.21729,2.42981-.0017,3.714-2.62842,6.866-4.36206,10.78723-3.41773C31.49066,14.31543,30.40417,13.99536,28.21594,13.9751Z" style="fill:#fae09f"/><path d="M9.46338,13.991a8.33179,8.33179,0,0,1,3.39862.37988l.23175-.074c.39935-.1941.71564-.801.83673-2.37964.76733.207,1.48108-.213,2.06952-2.09571V7.89709C13.78363,8.25549,11.59674,9.92627,9.46338,13.991Z" style="fill:#fdebbb"/><path d="M19.78711,8.35571A7.64478,7.64478,0,0,0,16,7.89709V9.82153c.00909-.029.01874-.051.02777-.08081C17.71448,10.15356,19.05121,9.8606,19.78711,8.35571Z" style="fill:#f4dfa2"/><path d="M6.19373,17.21346c.3817-1.22352,4.008-1.62114,6.21994-.691.45813.07092.38545.93018-.07268.85925-.74013-.175-2.171-.8595-1.91769,0,.24536,1.24658-2.27027,1.74182-2.51563.49524C7.50587,16.17555,5.05255,19.06759,6.19373,17.21346Z" style="fill:#ffd04d"/><ellipse cx="4.3977" cy="19.36003" rx="3.04704" ry="4.08419" transform="translate(-4.11264 1.42335) rotate(-12.58496)" style="fill:#b93d4f"/><ellipse cx="4.23658" cy="19.42899" rx="1.64073" ry="2.21456" transform="translate(-5.42975 2.05095) rotate(-16.78343)" style="fill:#2b3332"/><path d="M3.63755,18.8424l2.09732-2.29519c.43641-.24463,1.34657,1.3778.91015,1.62243Z" style="fill:#dadddc"/><path d="M3.63755,23.34458l1.90057-2.07989c.39548-.22168,1.22025,1.24856.82478,1.47024Z" style="fill:#dadddc"/><path d="M-.05443,21.95727l1.90057-2.07988c.39547-.22168,1.22025,1.24855.82477,1.47024Z" style="fill:#dadddc"/><path d="M.3615,18.19794l1.90056-2.07989c.39548-.22168,1.22026,1.24856.82478,1.47024Z" style="fill:#dadddc"/><ellipse cx="9.1679" cy="17.35315" rx="0.87477" ry="0.74753" style="fill:#d84459"/><circle cx="8.98301" cy="17.19145" r="0.32538" style="fill:#2b3332"/><circle cx="13.71382" cy="17.26529" r="0.52192" style="fill:#ffd04d"/><circle cx="15.09115" cy="17.85738" r="0.34056" style="fill:#ffd04d"/><path d="M16,10.33911V6.698C14.79755,7.39624,14.26837,8.7085,16,10.33911Z" style="fill:#3e688c"/><path d="M15.28143,19.35669c-.04577.333.05329.57519.71857.46191V18.3363Q15.65576,18.84076,15.28143,19.35669Z" style="fill:#3e688c"/><path d="M19.37408,10.9082C22.67218,6.204,18.21259,5.41309,16,6.698v3.64111a7.67659,7.67659,0,0,0,.67377.56909c2.3056,2.0979,1.24438,4.61719-.67377,7.4281v1.4823c.02-.00341.03546-.0039.05646-.00805C17.90234,17.92993,19.36029,15.47974,19.37408,10.9082Z" style="fill:#396186"/><circle cx="17.83337" cy="8.66467" r="1.62393" style="fill:#a8364c"/><path d="M16.85425,7.36841c.12225.38537,1.55511-.06983,1.43286-.4552l-1.47376-2.035Z" style="fill:#d1d4d4"/><polygon points="15.078 11.424 16 10.947 16 9.667 15.078 11.424" style="fill:#dadddc"/><path d="M16.24524,9.19922,16,9.66675v1.28064L17.29022,10.28C17.581,9.999,16.536,8.91821,16.24524,9.19922Z" style="fill:#d1d4d4"/><path d="M19.14258,9.76636l2.51117-.08594L19.56519,8.32361C19.17725,8.20972,18.75458,9.65259,19.14258,9.76636Z" style="fill:#d1d4d4"/><circle cx="17.83337" cy="8.66467" r="0.94839" style="fill:#f7c845"/></svg>

<svg xmlns="http://www.w3.org/2000/svg" viewBox="0 0 32 32"><path d="M12.834 19.16c-2.11-2.91-3.587-5.506-1.257-7.626 6.055-4.532-7.217-6.817-2.437 0 .012 4.126 1.328 6.338 2.994 8.035.65.126.742-.1.7-.41z" fill="#365c84"/><path d="M14.44 21.426a6.092 6.092 0 01-.48-.184 1.887 1.887 0 01-.488 1.482c-2.286 2.615 1.226 4.364 2.528 2.199v-2.897z" fill="#f7d684"/><path d="M17.052 22.43L16 22.027v2.897a3.103 3.103 0 00.389-1.086 2.335 2.335 0 01.663-1.406z" fill="#f0c877"/><path d="M12.862 14.37a8.332 8.332 0 00-3.399-.379c2.134-4.065 4.32-5.736 6.537-6.094v-.66c-2.668-.011-5.747.834-8.757 6.738-2.498.423-4.081.977-4.467 1.702l2.512 7.67a7.44 7.44 0 003.973-3.199 1.285 1.285 0 01.647-.475v-.005c2.886-2.536 3.97.301 6.092 1.759V17.01a6.951 6.951 0 00-3.138-2.64z" fill="#396186"/><path d="M19.787 8.356a7.83 7.83 0 004.828.673c2.583 2.258 2.735-2.635.158-.673-3.037.655-5.24-1.069-7.558-1.069-.394-.027-.8-.048-1.215-.05v.66a7.645 7.645 0 013.787.459zm.075 13.55l.558-.214c4.683-5.342 8.6-7.24 11.634-5.17-.229-.551-.374-1.134-1.701-1.28-3.921-.945-7.073.789-10.787 3.417-1.524 1.219-1.963.578-2.43.002A14.611 14.611 0 0116 17.01v4.416a4.035 4.035 0 003.862.48z" fill="#365c84"/><path d="M9.907 19.668l.001.005a2.093 2.093 0 012.242.475A6.773 6.773 0 0016 22.994v-1.567c-2.122-1.458-3.206-4.295-6.093-1.759z" fill="#fae09f"/><path d="M19.862 21.906A4.035 4.035 0 0116 21.427v1.567a4.197 4.197 0 00.82.083z" fill="#f7d684"/><path d="M20.42 21.692a7.103 7.103 0 01-.558.214l-3.043 1.17a2.72 2.72 0 01.773 1.638c.744 4.326 6.418 2.159 3.398-1.296a2.198 2.198 0 01-.57-1.726z" fill="#f0c877"/><path d="M28.216 13.975c-.147-1.364-1.139-1.349-3.166.356-.7-1.999-1.999-.857-3.522 1.464-.72-1.167-1.592-1.29-2.81.948-.343.94-.743 1.918-1.582 1.918.467.576.906 1.217 2.43-.002 3.714-2.628 6.866-4.362 10.787-3.418 1.138-.926.051-1.246-2.137-1.266z" fill="#fae09f"/><path d="M9.463 13.991a8.332 8.332 0 013.399.38l.232-.074c.4-.194.715-.801.836-2.38.768.207 1.482-.213 2.07-2.095V7.897c-2.216.358-4.403 2.03-6.537 6.094z" fill="#fdebbb"/><path d="M19.787 8.356A7.645 7.645 0 0016 7.897v1.925c.01-.03.019-.051.028-.081 1.686.413 3.023.12 3.76-1.385z" fill="#f4dfa2"/><path d="M6.194 17.213c.381-1.223 4.008-1.62 6.22-.69.458.07.385.93-.073.859-.74-.175-2.171-.86-1.918 0 .246 1.246-2.27 1.742-2.515.495-.402-1.701-2.855 1.19-1.714-.664z" fill="#ffd04d"/><ellipse cx="4.398" cy="19.36" rx="3.047" ry="4.084" transform="rotate(-12.585 4.398 19.36)" fill="#b93d4f"/><ellipse cx="4.237" cy="19.429" rx="1.641" ry="2.215" transform="rotate(-16.783 4.237 19.429)" fill="#2b3332"/><path d="M3.638 18.842l2.097-2.295c.436-.244 1.346 1.378.91 1.623zm0 4.503l1.9-2.08c.396-.222 1.22 1.248.825 1.47zm-3.692-1.388l1.9-2.08c.396-.221 1.22 1.249.825 1.47zm.415-3.759l1.901-2.08c.396-.222 1.22 1.249.825 1.47z" fill="#dadddc"/><ellipse cx="9.168" cy="17.353" rx=".875" ry=".748" fill="#d84459"/><circle cx="8.983" cy="17.191" r=".325" fill="#2b3332"/><circle cx="13.714" cy="17.265" r=".522" fill="#ffd04d"/><circle cx="15.091" cy="17.857" r=".341" fill="#ffd04d"/><path d="M16 10.34V6.697c-1.202.698-1.732 2.01 0 3.641zm-.719 9.017c-.045.333.054.575.719.462v-1.483q-.344.505-.719 1.02z" fill="#3e688c"/><path d="M19.374 10.908c3.298-4.704-1.161-5.495-3.374-4.21v3.641a7.677 7.677 0 00.674.57c2.305 2.097 1.244 4.616-.674 7.427v1.483c.02-.004.035-.004.056-.008 1.846-1.881 3.304-4.331 3.318-8.903z" fill="#396186"/><circle cx="17.833" cy="8.665" r="1.624" fill="#a8364c"/><path d="M16.854 7.368c.123.386 1.555-.07 1.433-.455l-1.474-2.035z" fill="#d1d4d4"/><path fill="#dadddc" d="M15.078 11.424l.922-.477v-1.28l-.922 1.757z"/><path d="M16.245 9.2L16 9.666v1.28l1.29-.667c.291-.281-.754-1.362-1.045-1.08zm2.898.566l2.51-.086-2.088-1.356c-.388-.114-.81 1.329-.422 1.442z" fill="#d1d4d4"/><circle cx="17.833" cy="8.665" r=".948" fill="#f7c845"/></svg>
